X: 30481
M: 2/4
L: 1/16
K: C
cBcd |\
e2e2 d2ed | cGce d2ed | cege agfe | ^c2d2 gagf |\
e2e2 d2ed | cGce d2ed | cGce dfed | "^FINE"c4 :|
d2d2 ^c2de | d2d2 eg^fe | d2d2 cBcd | c2B2 GABc |\
d2d2 ^c2de | d2d2 f2ed | e2c2 efde | c2e2 GABc |
d2d2 e2d^c | d2d2 g2^fe | d2d2 eg^fe | ^c2d2 bag^f |\
e2e2 g^fed | c2c2 ABcd | e2a2g2^f2 | "^D.C."g4 |]


